svgs/sharp-regular/microphone-lines-slash.svg

<svg xmlns="http://www.w3.org/2000/svg" viewBox="0 0 640 512"><!--! Font Awesome Pro 6.6.0 by @fontawesome - https://fontawesome.com License - https://fontawesome.com/license (Commercial License) Copyright 2024 Fonticons, Inc. --><path d="M472.4 344c15-25.9 23.6-56 23.6-88l0-40 0-24-48 0 0 24 0 40c0 21-5 40.7-14 58.2l-25.9-20.1c5.1-11.7 7.9-24.6 7.9-38.1l0-208 0-48L368 0 272 0 224 0l0 48 0 103.1L48.4 14.8 29.4 .1 0 38l19 14.7L591.5 497.2l19 14.7L639.9 474l-19-14.7L472.4 344zM272 188.4L272 48l96 0 0 48-32 0-16 0 0 32 16 0 32 0 0 32-32 0-16 0 0 32 16 0 32 0 0 64c0 2.2-.2 4.4-.4 6.6L272 188.4zm86.2 189.8C346.1 382 333.3 384 320 384c-70.7 0-128-57.3-128-128l0-8.7-48-37.8 0 6.5 0 40c0 89.1 66.2 162.7 152 174.4l0 33.6-48 0-24 0 0 48 24 0 72 0 72 0 24 0 0-48-24 0-48 0 0-33.6c20.4-2.8 39.7-9.1 57.3-18.2l-43.1-33.9z"/></svg>

<svg xmlns="http://www.w3.org/2000/svg" viewBox="0 0 640 512"><!--! Font Awesome Pro 6.4.0 by @fontawesome - https://fontawesome.com License - https://fontawesome.com/license (Commercial License) Copyright 2023 Fonticons, Inc. --><path d="M472.4 344c15-25.9 23.6-56 23.6-88V216 192H448v24 40c0 21-5 40.7-14 58.2l-25.9-20.1c5.1-11.7 7.9-24.6 7.9-38.1V48 0H368 272 224V48 151.1L48.4 14.8 29.4 .1 0 38 19 52.7 591.5 497.2l19 14.7L639.9 474l-19-14.7L472.4 344zM272 188.4V48h96V96H336 320v32h16 32v32H336 320v32h16 32v64c0 2.2-.2 4.4-.4 6.6L272 188.4zm86.2 189.8C346.1 382 333.3 384 320 384c-70.7 0-128-57.3-128-128v-8.7l-48-37.8V216v40c0 89.1 66.2 162.7 152 174.4V464H248 224v48h24 72 72 24V464H392 344V430.4c20.4-2.8 39.7-9.1 57.3-18.2l-43.1-33.9z"/></svg>
